packages/ui-icons/src/Basic/32/Logo_32.svg

<svg xmlns="http://www.w3.org/2000/svg" viewBox="0 0 40 40"><path d="M20 4a16 16 0 1 0 16 16A16 16 0 0 0 20 4Zm-4 29.42A14 14 0 0 1 20 6v13h-4Zm4 .58a14 14 0 0 1-2-.16V21h4V6.17A14 14 0 0 1 20 34Zm3-7.51A1.5 1.5 0 1 1 21.5 25a1.5 1.5 0 0 1 1.5 1.5ZM16 13a1.5 1.5 0 1 1-1.5-1.5A1.5 1.5 0 0 1 16 13Zm11 13.5a1.5 1.5 0 1 1-1.5-1.5 1.5 1.5 0 0 1 1.5 1.5Zm2.5-1.5a1.5 1.5 0 1 1-1.5 1.5 1.5 1.5 0 0 1 1.5-1.5Z"/></svg>

<svg id="Ready" xmlns="http://www.w3.org/2000/svg" viewBox="0 0 40 40"><title>Megaicons_work_32_1.8_cp</title><path d="M20,4A16,16,0,1,0,36,20,16,16,0,0,0,20,4ZM16,33.42A14,14,0,0,1,20,6V19H16ZM20,34a14,14,0,0,1-2-.16V21h4V6.17A14,14,0,0,1,20,34Zm3-7.51A1.5,1.5,0,1,1,21.5,25,1.5,1.5,0,0,1,23,26.5ZM16,13a1.5,1.5,0,1,1-1.5-1.5A1.5,1.5,0,0,1,16,13ZM27,26.5A1.5,1.5,0,1,1,25.5,25,1.5,1.5,0,0,1,27,26.5ZM29.5,25A1.5,1.5,0,1,1,28,26.5,1.5,1.5,0,0,1,29.5,25Z"/></svg>
